X:1
T:THEME FROM SCHINDLER'S LIST
T:THEME FROM SCHINDLER'S LIST
T:(John Williams)
T:Arrgt : S. HERMAND
C:Arrgt : S. HERMAND
%%score { ( 1 4 ) | ( 2 3 ) }
L:1/8
Q:1/4=70
M:4/4
K:Bb
V:1 treble nm="Piano" snm="Pia."
V:4 treble 
V:2 bass 
V:3 bass 
V:1
!mp!"^\n" !fermata!D2 | dGdG edBD | BC[EB]c [Fd]4 | dGdG [=Ff]e[Fd]c | %4
 [G,F]E[A,A]c [_Ge][Fd][Ec][DB] | [Cc]EcE [=Gd]c[^FB]c | d6 z D | cEcE [Gd]c[^FB]A | %8
 [G,G]4 [A,A]4 | [EB]C[EB]C [Gd]c[^FB]A | G3 d !arpeggio![Bg]4 | z d/c/ ed A>B c2- | %12
 cB/c/ AG/^F/ A G3 | z d/c/ fe A>B c2- | cC/D/ EE/F/ [CG]A/B/ [GA^c]2 | dGdG edBD | BC[EB]c [Fd]4 | %17
 dGdG [=Ff]e[Fd]c | [G,F]E[A,A]c [_Ge][Fd][Ec][DB] | [Cc]EcE [=Gd]c[^FB]c | d6 z D | %21
 cEcE [Gd]c[^FB]A | G2- G/B,/D/E/ [EG]2 [D^F]2 | [EB]C[EB]C [Gd]c[^FB]A | G6 z2 | %25
"_dim." G3 B dgbd' | !arpeggio!!fermata![bd'g']8 |] %27
V:2
 !fermata!z2 | D,2 D,2 D,4 | C,2 F,2 B,,F,B,C | D,2 D,2 E,2 E,2 | F,2 F,2 F,2 F,2 | %5
 [A,,E,G,]4 [D,C]2 C2 | [D,B,]4 G,,4 | [E,G,]4 D,4 | [E,,B,,E,]4 [A,,G,]2 [D,^F,]2 | C,4 D,4 | %10
 G,,D,B,D [G,D]4 | z [B,D]2 [B,D] z [A,CE]2 [A,CE] | z [A,CE]2 [A,CE] z [B,D]2 [B,D] | %13
 z [G,B,D] [G,A,CE]2 z [A,CE]2 [A,CE] | z E,2 G,- G,2 ^C2 | D,2 D,2 D,4 | C,2 F,2 B,,F,B,C | %17
 D,2 D,2 E,2 E,2 | F,2 F,2 F,2 F,2 | [A,,E,G,]4 [D,C]2 C2 | [D,B,]4 G,,4 | [E,G,]4 D,4 | %22
 E,,/B,,/D,/E,/ G,2 G,2 ^F,2 | C,4 D,4 | G,,2 A,,2 [C,G,]2 [D,^F,]2 | G,,D,B,D[K:treble] GB d2 | %26
 !arpeggio!!fermata![Gdg]8 |] %27
V:3
 x2 | G,,8 | x8 | G,,4 C,4 | A,,4 B,,4 | x8 | x8 | A,,4 C2 C2 | x8 | G,4 C2 C2 | x8 | G,4 G,4 | %12
 G,4 G,4 | G,,4 G,4 | A,,4- A,,2 !courtesy!_E,2 | G,,8 | x8 | G,,4 C,4 | A,,4 B,,4 | x8 | x8 | %21
 A,,4 C2 C2 | E,,4 A,,2 D,2 | G,4 C2 C2 | x8 | x4[K:treble] x4 | x8 |] %27
V:4
 x2 | x8 | x8 | x8 | x8 | x8 | A2 G2 ^F2 G2 | x8 | D2 C2 [EG]2 [D^F]2 | x8 | x8 | x8 | x8 | x8 | %14
 x8 | x8 | x8 | x8 | x8 | x8 | A2 G2 ^F2 G2 | x8 | [G,D]2 x2 [CA]4 | x8 | =FEDC E2 [CD]2 | x8 | %26
 x8 |] %27

